X:2193
T:Geogehan's
O:england
M:4/4
L:1/8
K:G
G2BG DGBG|G2Bd cAFA|G3B dGBc|defd cAFA|
G2BG DGBG|G2Bd cAFA|GBB2 dBB2|defd cAFA:|
dggf g2fg|add2 adfd|dggf g2fe|defd cAFA|
dggf g2fg|agab agfe|dgg2 bgg2|defd cAFA:|


